X: 32427
T: Piper's Stone, The
R: jig
M: 6/8
K: Dmajor
A|:dcd ecA|GFG Ade|fdf ged|cde ecA|
dcd ecA|GFG Ade|fef gec|1 edc d2A:|2 edc d2e||
fef Adf|afd fed|cde ecA|gfg ecA
dcd ecA|GFG Ade|fef gec|edc d2e|
fef Adf|afd fed|eAA fAA|gfg ecA|
dcd ecA|GFG Ade|fef gec|edc d2A||

